X:5194
T:Polska efter Myr\aa{}s-P\aa{}lle
O:england
S:As notated by Nils Olsson 1960
R:Polska
Q:1/4=130
N:"Myr\aa{}s-P\aa{}lle", Paulus Almgren, (1864-1961)
M:3/4
L:1/8
A:Torp, Medelpad
K:Dm
A,|:\
F>F EE D2|A>A GA/B/ A2|DF/A/ (d/^c/)d/e/ fa|(g/f/)e/d/ (^c/d/)c/=B/ A2|\
F>F EE D2|A>A GA/B/ A2|DF/A/ (d/^c/)d/e/ ff|1 ed/^c/ d3 A,:|2 ed/^c/ d3 e|:\
f>d dd dd|f>c cc cc|cB/c/ dB B>B|BA/G/ A3 e|f>d dd dd|\
d>c cc cc|Ad/e/ ff gf|1 ed/^c/ d3 e:|2 ed/^c/ d4|]
